X: 1
T: Dubuque
% Nottingham Music Database
S: via PR
M: C
L: 1/8
K: D
|:\
"D"A,B,DE D2DE | F2BF A4 | "G"B3d BAFE |\
[1,3 "D"DEFD "A7"EDB,2 :|[2,4 "A7"DEFE "D"D4 ::\
"D"FA2F A2BA | FEDF EDB,2 |
"G"GB2G B2GA | "G"BAGB AGED ||\
"D"FA2F A2BA | FEDF "Bm"EDB,2 |\
"D"FEDF EDB,2 |[1 "A7"A,B,DE "D"FED2 :|[2 "A7"A,B,DE "D"D4 |]
